X: 10342
Q: "Slow."
M: 3/4
L: 1/16
K: C
c6 d2e2d2 | c4 G4 G2A2 | _B6 d2c2B2 | {_B}A8 GA=B2 |\
c6 d2e3d | c4 G4 B4 | (c2B2)(c2d2)(e2f2) | {a}g8 c'4 |\
{a}g4 f4 e4 | {e}d4 c4 B4 | {d}c4 B4 A4 |
{A}G8 z2(gf) |\
(e2f2)(g2a2)(b2c'2) | g4 e4 (cdef) | e6 f2 d4 | c8 ::\
c3d |\
e4 c4 d4 | c4 G4 (G2A2) | _B6 d2c2B2 | {_B}A8 (c3d) |\
e4 c4 d4 | c4 G4 B4 |
(c2B2)(c2d2)(e2f2) | ({a}g8 ab)c'2 |\
{a}g4 f4 e4 | {e}d4 c4 B4 | {d}c4 B4 A4 | {A}HG8 z2(c/B/A) |\


